icon-themes/breeze_svg/sw/res/emptypage_a_10x14.svg

<svg viewBox="0 0 14 10" xmlns="http://www.w3.org/2000/svg"><path d="m3 0v10h1 6 1v-1-5-1l-3-3h-1-3zm1 1h3v2 1h1 2v5h-6z" fill="#1d99f3"/></svg>

<svg xmlns="http://www.w3.org/2000/svg" viewBox="0 0 14 10">
 <path 
     style="fill:#1d99f3" 
     d="M 3 0 L 3 10 L 4 10 L 10 10 L 11 10 L 11 9 L 11 4 L 11 3 L 8 0 L 7 0 L 4 0 L 3 0 z M 4 1 L 7 1 L 7 3 L 7 4 L 8 4 L 10 4 L 10 9 L 4 9 L 4 1 z "
     />
</svg>
